src/pages/Home/images/instagram.svg

<svg width="32" height="32" viewBox="0 0 32 32" fill="none" xmlns="http://www.w3.org/2000/svg">
<circle cx="16" cy="16" r="16" fill="#BD1B7F"/>
<path d="M20.577 10.9657C20.3736 10.9657 20.1747 11.026 20.0056 11.1391C19.8364 11.2521 19.7046 11.4127 19.6268 11.6007C19.5489 11.7886 19.5285 11.9954 19.5682 12.1949C19.6079 12.3945 19.7059 12.5777 19.8497 12.7216C19.9936 12.8654 20.1768 12.9634 20.3764 13.0031C20.5759 13.0428 20.7827 13.0224 20.9707 12.9446C21.1586 12.8667 21.3192 12.7349 21.4323 12.5657C21.5453 12.3966 21.6056 12.1977 21.6056 11.9943C21.6056 11.7215 21.4972 11.4599 21.3043 11.267C21.1115 11.0741 20.8498 10.9657 20.577 10.9657ZM24.5199 13.04C24.5032 12.3288 24.37 11.6252 24.1256 10.9571C23.9077 10.3855 23.5685 9.86795 23.1313 9.44C22.7069 9.00065 22.1881 8.66358 21.6142 8.45429C20.9479 8.20242 20.2435 8.06618 19.5313 8.05143C18.6228 8 18.3313 8 15.9999 8C13.6685 8 13.377 8 12.4685 8.05143C11.7563 8.06618 11.0519 8.20242 10.3856 8.45429C9.81276 8.6657 9.29441 9.00248 8.86847 9.44C8.42912 9.86444 8.09205 10.3832 7.88275 10.9571C7.63089 11.6234 7.49465 12.3278 7.4799 13.04C7.42847 13.9486 7.42847 14.24 7.42847 16.5714C7.42847 18.9029 7.42847 19.1943 7.4799 20.1029C7.49465 20.815 7.63089 21.5194 7.88275 22.1857C8.09205 22.7596 8.42912 23.2784 8.86847 23.7029C9.29441 24.1404 9.81276 24.4772 10.3856 24.6886C11.0519 24.9404 11.7563 25.0767 12.4685 25.0914C13.377 25.1429 13.6685 25.1429 15.9999 25.1429C18.3313 25.1429 18.6228 25.1429 19.5313 25.0914C20.2435 25.0767 20.9479 24.9404 21.6142 24.6886C22.1881 24.4793 22.7069 24.1422 23.1313 23.7029C23.5704 23.2765 23.9099 22.7584 24.1256 22.1857C24.37 21.5177 24.5032 20.814 24.5199 20.1029C24.5199 19.1943 24.5713 18.9029 24.5713 16.5714C24.5713 14.24 24.5713 13.9486 24.5199 13.04ZM22.977 20C22.9708 20.5441 22.8723 21.0832 22.6856 21.5943C22.5487 21.9673 22.3289 22.3044 22.0428 22.58C21.7647 22.8633 21.4284 23.0827 21.057 23.2229C20.5459 23.4095 20.0068 23.508 19.4628 23.5143C18.6056 23.5571 18.2885 23.5657 16.0342 23.5657C13.7799 23.5657 13.4628 23.5657 12.6056 23.5143C12.0407 23.5249 11.4781 23.4379 10.9428 23.2571C10.5877 23.1098 10.2668 22.891 9.9999 22.6143C9.7154 22.3389 9.49833 22.0016 9.36561 21.6286C9.15634 21.1101 9.04028 20.5588 9.02275 20C9.02275 19.1429 8.97132 18.8257 8.97132 16.5714C8.97132 14.3171 8.97132 14 9.02275 13.1429C9.02659 12.5866 9.12814 12.0354 9.32275 11.5143C9.47365 11.1525 9.70527 10.83 9.9999 10.5714C10.2603 10.2767 10.5821 10.0427 10.9428 9.88571C11.4652 9.69718 12.0159 9.59864 12.5713 9.59429C13.4285 9.59429 13.7456 9.54286 15.9999 9.54286C18.2542 9.54286 18.5713 9.54286 19.4285 9.59429C19.9726 9.60053 20.5116 9.69907 21.0228 9.88571C21.4123 10.0303 21.7619 10.2653 22.0428 10.5714C22.3236 10.8347 22.5431 11.1566 22.6856 11.5143C22.8761 12.0362 22.9747 12.5872 22.977 13.1429C23.0199 14 23.0285 14.3171 23.0285 16.5714C23.0285 18.8257 23.0199 19.1429 22.977 20ZM15.9999 12.1743C15.1306 12.176 14.2813 12.4353 13.5593 12.9195C12.8373 13.4037 12.2751 14.091 11.9436 14.8946C11.6121 15.6983 11.5262 16.5821 11.6969 17.4345C11.8675 18.2869 12.287 19.0696 12.9022 19.6837C13.5175 20.2978 14.301 20.7157 15.1538 20.8847C16.0065 21.0537 16.8902 20.9661 17.6932 20.633C18.4961 20.3 19.1824 19.7364 19.6651 19.0135C20.1479 18.2905 20.4056 17.4407 20.4056 16.5714C20.4067 15.9929 20.2935 15.4199 20.0724 14.8854C19.8513 14.3508 19.5267 13.8653 19.1172 13.4566C18.7078 13.048 18.2216 12.7243 17.6866 12.5042C17.1516 12.2842 16.5784 12.172 15.9999 12.1743ZM15.9999 19.4257C15.4354 19.4257 14.8835 19.2583 14.4141 18.9447C13.9448 18.631 13.5789 18.1853 13.3629 17.6637C13.1468 17.1422 13.0903 16.5683 13.2005 16.0146C13.3106 15.4609 13.5824 14.9523 13.9816 14.5531C14.3808 14.154 14.8894 13.8821 15.4431 13.772C15.9967 13.6619 16.5706 13.7184 17.0922 13.9344C17.6137 14.1504 18.0595 14.5163 18.3731 14.9857C18.6868 15.4551 18.8542 16.0069 18.8542 16.5714C18.8542 16.9463 18.7804 17.3174 18.6369 17.6637C18.4935 18.01 18.2832 18.3247 18.0182 18.5897C17.7531 18.8548 17.4385 19.065 17.0922 19.2084C16.7459 19.3519 16.3747 19.4257 15.9999 19.4257Z" fill="white"/>
</svg>

<svg width="32" height="32" fill="none" xmlns="http://www.w3.org/2000/svg"><circle cx="16" cy="16" r="16" fill="#BD1B7F"/><path d="M20.577 10.966a1.028 1.028 0 1 0 0 2.055 1.028 1.028 0 0 0 0-2.055Zm3.943 2.074a6.507 6.507 0 0 0-.394-2.083 4.233 4.233 0 0 0-.995-1.517 4.028 4.028 0 0 0-1.517-.986 6.257 6.257 0 0 0-2.083-.403C18.623 8 18.331 8 16 8c-2.332 0-2.623 0-3.531.051a6.257 6.257 0 0 0-2.083.403 4.097 4.097 0 0 0-1.518.986c-.439.424-.776.943-.985 1.517a6.257 6.257 0 0 0-.403 2.083c-.052.909-.052 1.2-.052 3.531 0 2.332 0 2.623.052 3.532.015.712.15 1.416.403 2.083a4.03 4.03 0 0 0 .985 1.517c.426.437.945.774 1.518.986.666.251 1.37.388 2.083.402.908.052 1.2.052 3.53.052 2.332 0 2.624 0 3.532-.052a6.257 6.257 0 0 0 2.083-.402 4.029 4.029 0 0 0 1.517-.986c.44-.427.779-.945.995-1.517a6.507 6.507 0 0 0 .394-2.083c0-.909.051-1.2.051-3.532 0-2.331 0-2.622-.051-3.531ZM22.977 20a4.806 4.806 0 0 1-.291 1.594c-.137.373-.357.71-.643.986a2.735 2.735 0 0 1-.986.643 4.811 4.811 0 0 1-1.594.291c-.857.043-1.175.052-3.429.052-2.254 0-2.571 0-3.428-.052a4.909 4.909 0 0 1-1.663-.257 2.801 2.801 0 0 1-.943-.643 2.572 2.572 0 0 1-.634-.985A4.75 4.75 0 0 1 9.023 20c0-.857-.052-1.174-.052-3.429 0-2.254 0-2.571.052-3.428a4.749 4.749 0 0 1 .3-1.629c.15-.361.382-.684.677-.943.26-.294.582-.528.943-.685a4.91 4.91 0 0 1 1.628-.292c.857 0 1.175-.051 3.429-.051 2.254 0 2.571 0 3.428.051a4.81 4.81 0 0 1 1.595.292c.39.144.739.38 1.02.685.28.264.5.586.643.943.19.522.289 1.073.291 1.629.043.857.052 1.174.052 3.428 0 2.255-.01 2.572-.052 3.429ZM16 12.174a4.397 4.397 0 1 0 4.406 4.397A4.389 4.389 0 0 0 16 12.174Zm0 7.252a2.855 2.855 0 1 1 0-5.71 2.855 2.855 0 0 1 0 5.71Z" fill="#fff"/></svg>
